X:1
T:F# minor Jacob French, 1802
T:Isaac Watts, 1709 (Hymn 146, Book 2)    88. 88.  (L. M.)
T:Coventry
T:Transcribed from Harmony of Harmony, 1802
%%score [ 1 2 3 4 ]
L:1/8
Q:1/4=120
M:2/2
K:A
V:1 treble nm="Treble" snm="Tr."
V:2 treble nm="Counter" snm="C."
V:3 treble-8 nm="Tenor" snm="T."
V:4 bass nm="Bass" snm="B."
V:1
 A4 | c2 c2 c2 ed | c2 c2 c3 c | c3 e e2 d2 | cB A2 G4 |: A4 c2 A2 | f2 A2 B2 cd | e4 e4 | %8
w: 1.~Man|has a soul of *|vast de- sires; He|burns with- in with|rest- * less fires;|Tossed to an|fro, his pas- sions *|fly from|
 c2 c2 [cf]2 ed |1 c2 c2 c4 :|2 c4 c4 || c8 |] %12
w: va- ni- ty to *|va- ni- ty.|va- ni-|ty.|
V:2
 F4 | F2 G2 A2 G2 | F2 ^E2 F3 E | F3 G A2 BA | G2 F2 ^E4 |: F4 AG FE | F2 F2 G2 A2 | G4 G4 | %8
w: 2.~In|vain on earth we|hope to find Some|so- lid good to *|fill the mind;|We try * new *|plea- sures, but we|feel The|
 F2 G2 A2 G2 |1 F2 ^E2 F4 :|2 F4 ^E4 || F8 |] %12
w: in- ward thirst and|tor- ment still.|tor- ment|still.|
V:3
 c4 | A2 G2 F2 cB | A2 G2 F3 G | A3 B c2 d2 | ed cB c4 |: c4 f2 c2 | d2 c2 B2 A2 | B4 c4 | %8
w: 3.~So|when a ra- ging *|fe- ver burns, We|shift from side to|side * by * turns,|And 'tis a|poor re- lief we|gain, To|
 A2 G2 F2 cB |1 A2 G2 F4 :|2 A4 G4 || F8 |] %12
w: change the place, but *|keep the pain.|keep the|pain.|
V:4
 F,4 | F,2 E,2 A,2 E,2 | F,2 C,2 F,,3 C, | F,3 E, A,2 G,F, | E,2 F,2 C,4 |: F,4 F,2 A,2 | %6
w: 4.~Great|God, sub- due this|vi- cious thirst, This|love to va- ni- *|ty and dust;|Cure the vile|
 B,2 A,2 G,2 F,2 | E,4 C,4 | F,2 E,2 A,2 E,2 |1 F,2 C,2 F,,4 :|2 F,4 C,4 || F,,8 |] %12
w: fe- ver of the|mind, And|feed our souls with|joys re- fined.|joys re-|fined.|

